icons/production/angular.svg

<?xml version="1.0" encoding="UTF-8" standalone="no"?>
<svg width="24px" height="24px" viewBox="0 0 24 24" version="1.1" xmlns="http://www.w3.org/2000/svg">
<!--Generator: Sketch 3.8.3 (29802) - http://www.bohemiancoding.com/sketch-->
    <title>
        angular
    </title>
    <desc>
        Created with Sketch.
    </desc>
    <g id="Page-1" stroke="none" stroke-width="1" fill="none" fill-rule="evenodd">
        <path d="M11.9447611,7.88603371 L10.12674,11.9566161 L14.0447214,11.9566161 L11.9606699,7.8484899 L11.9438773,7.8851994 L11.9447611,7.88603371 Z M11.9686243,2 L2,5.31136326 L3.57497017,17.6399132 L11.9783464,22 L20.4250298,17.5806775 L22,5.25296179 L11.9677405,2 L11.9686243,2 Z M16.1932918,16.6412481 L14.8401609,13.6836309 L9.31627558,13.6836309 L8.08069292,16.6012014 L5.78187282,16.6412481 L11.9447611,3.69864842 L18.3224181,16.6412481 L16.192408,16.6412481 L16.1932918,16.6412481 Z" id="angular" fill="#000"/>
    </g>
</svg>

<svg xmlns="http://www.w3.org/2000/svg" viewBox="0 0 24 24">
    <path fill-rule="evenodd" d="M11.945 7.886l-1.818 4.07h3.918L11.96 7.849l-.017.037v.001zM11.969 2L2 5.311 3.575 17.64 11.978 22l8.447-4.42L22 5.254 11.968 2zm4.224 14.641l-1.353-2.957H9.316L8.081 16.6l-2.3.04L11.946 3.7l6.377 12.942h-2.13.001z"/>
</svg>
